src/images/icon/icon_label_normal_viewer.svg

<svg height="20" viewBox="0 0 20 20" width="20" xmlns="http://www.w3.org/2000/svg"><g fill="none" fill-rule="evenodd"><path d="m8.8753847 2.00162993c1.8409484.10500581 3.2853185 1.59502747 3.3533018 3.41691895l.0020828.18961219v1.58521235c-.0015223 1.28556055-.7147329 2.45827004-1.8414043 3.05459068l-.181288.0892984.1581897.7961859c-2.11941354.9780493-3.86626706 2.9010766-3.86626706 4.3665516 0 .4686654.17865953.9841269.49102482 1.500548l-3.41410121-.000548c-.28676323 0-.52466048-.209198-.5693723-.4832906l-.00755131-.0935698v-2.5912568c-.00026197-.4722917.28659421-.8922655.71600204-1.0681167l.12053695-.0417627 2.52461534-.7210755c.37438809-.1070353.66656351-.3944552.78259202-.7602204l.03202336-.1246834.15461538-.7776079c-1.16972796-.53452935-1.94141341-1.67019442-2.01664484-2.94300125l-.00604744-.20204153v-1.73058116c-.00044059-.93664712.37879182-1.83348309 1.05109986-2.48571626.67230804-.65223318 1.58028399-1.00417002 2.51659239-.97544607z" fill="#b6c2cd"/><g fill="#36435c"><path d="m13 12c2.7614237 0 5 2.73367 5 3.5s-2.2385763 3.5-5 3.5-5-2.73367-5-3.5 2.2385763-3.5 5-3.5zm0 1c-1.3807119 0-2.5 1.1192881-2.5 2.5s1.1192881 2.5 2.5 2.5 2.5-1.1192881 2.5-2.5-1.1192881-2.5-2.5-2.5z"/><path d="m13.0384615 17c.8284272 0 1.5-.6715729 1.5-1.5s-.6715728-1.5-1.5-1.5c-.8284271 0-1.5.6715729-1.5 1.5s.6715729 1.5 1.5 1.5z"/></g></g></svg>

<?xml version="1.0" encoding="UTF-8"?>
<svg width="20px" height="20px" viewBox="0 0 20 20" version="1.1" xmlns="http://www.w3.org/2000/svg" xmlns:xlink="http://www.w3.org/1999/xlink">
    
    <g id="Dashboard" stroke="none" stroke-width="1" fill="none" fill-rule="evenodd">
        <g id="00-Icon、DropDown" transform="translate(-579.000000, -383.000000)">
            <g id="编组-23" transform="translate(579.000000, 383.000000)">
                <path d="M8.8753847,2.00162993 C10.7163331,2.10663574 12.1607032,3.5966574 12.2286865,5.41854888 L12.2307693,5.60816107 L12.2307693,7.19337342 C12.229247,8.47893397 11.5160364,9.65164346 10.389365,10.2479641 L10.208077,10.3372625 L10.3662667,11.1334484 C8.24685316,12.1114977 6.49999964,14.034525 6.49999964,15.5 C6.49999964,15.9686654 6.67865917,16.4841269 6.99102446,17.000548 L3.57692325,17 C3.29016002,17 3.05226277,16.790802 3.00755095,16.5167094 L2.99999964,16.4231396 L2.99999964,13.8318828 C2.99973767,13.3595911 3.28659385,12.9396173 3.71600168,12.7637661 L3.83653863,12.7220034 L6.36115397,12.0009279 C6.73554206,11.8938926 7.02771748,11.6064727 7.14374599,11.2407075 L7.17576935,11.1160241 L7.33038473,10.3384162 C6.16065677,9.80388685 5.38897132,8.66822178 5.31373989,7.39541495 L5.30769245,7.19337342 L5.30769245,5.46279226 C5.30725186,4.52614514 5.68648427,3.62930917 6.35879231,2.977076 C7.03110035,2.32484282 7.9390763,1.97290598 8.8753847,2.00162993 Z" id="形状" fill="#B6C2CD"></path>
                <path d="M13,12 C15.7614237,12 18,14.73367 18,15.5 C18,16.26633 15.7614237,19 13,19 C10.2385763,19 8,16.26633 8,15.5 C8,14.73367 10.2385763,12 13,12 Z M13,13 C11.6192881,13 10.5,14.1192881 10.5,15.5 C10.5,16.8807119 11.6192881,18 13,18 C14.3807119,18 15.5,16.8807119 15.5,15.5 C15.5,14.1192881 14.3807119,13 13,13 Z" id="形状结合" fill="#36435C"></path>
                <path d="M13.0384615,17 C13.8668887,17 14.5384615,16.3284271 14.5384615,15.5 C14.5384615,14.6715729 13.8668887,14 13.0384615,14 C12.2100344,14 11.5384615,14.6715729 11.5384615,15.5 C11.5384615,16.3284271 12.2100344,17 13.0384615,17 Z" id="椭圆形" fill="#36435C"></path>
            </g>
        </g>
    </g>
</svg>
